public/images/login.svg

<svg width="32" height="32" viewBox="0 0 32 32" fill="none" xmlns="http://www.w3.org/2000/svg">
<path d="M27.2998 31.2H22.1997V29.7H27.2998C28.6998 29.7 29.7998 28.6 29.7998 27.2V4.7002C29.7998 3.3002 28.6998 2.2002 27.2998 2.2002H4.69984C3.29984 2.2002 2.19984 3.3002 2.19984 4.7002V27.3002C2.19984 28.7002 3.29984 29.8002 4.69984 29.8002H9.8V31.3002H4.69984C2.49984 31.3002 0.699837 29.5002 0.699837 27.3002V4.7002C0.699837 2.5002 2.49984 0.700195 4.69984 0.700195H27.2998C29.4998 0.700195 31.2998 2.5002 31.2998 4.7002V27.3002C31.2998 29.5002 29.4998 31.2004 27.2998 31.2004V31.2Z" fill="black"/>
<path d="M15.2998 15.2999H16.7998V30.4999H15.2998V15.2999Z" fill="black"/>
<path d="M24.2 16H7.8L16 7.80005L24.2 16ZM11.4 14.5H20.6L16 9.90005L11.4 14.5Z" fill="black"/>
</svg>

<svg width="32" height="32" fill="none" xmlns="http://www.w3.org/2000/svg"><path d="M27.3 31.2h-5.1v-1.5h5.1c1.4 0 2.5-1.1 2.5-2.5V4.7c0-1.4-1.1-2.5-2.5-2.5H4.7c-1.4 0-2.5 1.1-2.5 2.5v22.6c0 1.4 1.1 2.5 2.5 2.5h5.1v1.5H4.7c-2.2 0-4-1.8-4-4V4.7c0-2.2 1.8-4 4-4h22.6c2.2 0 4 1.8 4 4v22.6c0 2.2-1.8 3.9-4 3.9z" fill="#000"/><path d="M15.3 15.3h1.5v15.2h-1.5V15.3z" fill="#000"/><path d="M24.2 16H7.8L16 7.8l8.2 8.2zm-12.8-1.5h9.2L16 9.9l-4.6 4.6z" fill="#000"/></svg>
